X:1
T: Big Dan O'Mahony
C:
R:Reel
Q:232
K:G
M:4/4
L:1/8
GB|AG AB A2Bd|ed BA G2Bd|e2ef gf ea|ed BA G3B|AG AB A2Bd|ed BA G2ed|B2AG gd Bd|c2A2 A2E2|
AG AB A2Bd|ed BA G2Bd|e2ef gf ea|ed BA G3B|AG AB A2Bd|ed BA G2ed|B2AG gd Bd|c2A2 A2Bd|
e2ef g2fe|a2a2 g2ea|ed ef gf ea|ed BA G2Bd|e2ef gf ge|ab ag e2ea|ge dg ed Bd|c2AA A2Bd|
e2ef gf ge|((3aba) ag e2ea|ed ef gf ea|ed BA G2AB|c2Bc d2cd|ef ge a2a2|gf ea ed Bd|c2A2 A2||
